X: 58
T: Missa Quinti toni / Kyrie
N: Derived from Ock1012a-Missa_Quinti_toni-Kyrie.krn
C: Johannes Ockeghem
%%abc-version 2.0
%%abcx-abcm2ps-target-version 5.9.1 (29 Sep 2008)
%%abc-creator hum2abc beta
%%abcx-conversion-date 2019/02/17 07:26:15
%%abc-edited-by Jesse Rodin
%%abc-edited-by Chris Gage 08-06-2012
%%abcx-initial-encoding-date 2012/08/09/
%%humdrum-veritas 1569794786
%%humdrum-veritas-data 3073684852
%%linebreak <none>
%%barnumbers 0
L: 1/4
M: 4/2
Q: 1/2=120
V: 1 clef=treble
V: 2 clef=treble-8
V: 3 clef=bass
K: F
[V:1] F6D2 | 
[V:2] F8 | 
[V:3] F,4D,4 | 
[V:1] D3EF2G2- | 
[V:2] B4A2B2- | 
[V:3] B,,4z2_E,2- | 
[V:1] G2E2F4 | 
[V:2] B2c2A4 | 
[V:3] E,2C,2D,4 | 
[V:1] G3E2CE2 | 
[V:2] G4c4 | 
[V:3] _E,2C,2z2C,2 | 
[V:1] F2C2D4 | 
[V:2] d2c4=B2 | 
[V:3] B,,2C,3B,,G,,2 | 
[V:1] z2C2D2E2 | 
[V:2] c4z2c2 | 
[V:3] z2C,2B,,2A,,2 | 
[V:1] DF2GA3=B | 
[V:2] d2e2f4 | 
[V:3] B,,2G,,2F,,4 | 
[V:1] c4A2G2- | 
[V:2] e2c4e2 | 
[V:3] z2C,4C,2 | 
[V:1] GFD2C2D2 | 
[V:2] d2g3ef2- | 
[V:3] B,,4C,2B,,2 | 
[V:1] C2c4=B2 | 
[V:2] fec2d4 | 
[V:3] A,,4G,,4 | 
[V:1] c4z2c2- | 
[V:2] c2A2B2G2 | 
[V:3] z2C,2D,2E,2 | 
[V:1] c2A2B2A2 | 
[V:2] F4G2F2 | 
[V:3] F,4E,2F,2- | 
[V:1] F4G2A2 | 
[V:2] A2B4c2 | 
[V:3] F,E,D,C,B,,2A,,2 | 
[V:1] F2B2A2G2- | 
[V:2] d2B2c4 | 
[V:3] B,,2G,,2F,,2C,2 | 
[V:1] G2F4E2 | 
[V:2] F4G4 | 
[V:3] D,4C,4 | 
[V:1] F8 ||  
[V:2] F8 ||  
[V:3] F,,8 ||  
[V:1]  [K:F] [K:clef=treble][M:4/2]D4C4 | 
[V:2]  [K:F] [K:clef=treble-8][M:4/2]B4F4 | 
[V:3]  [K:F] [K:clef=bass][M:4/2]z8 | 
[V:1] B,4z2F2 | 
[V:2] G4F4 | 
[V:3] B,,4F,,4 | 
[V:1] D2B,2C4 | 
[V:2] z2B2A2F2 | 
[V:3] G,,4F,,4 | 
[V:1] B,4C2A,2 | 
[V:2] G4F4 | 
[V:3] z2B,,2A,,2F,,2 | 
[V:1] G,4A,4 | 
[V:2] E4F4 | 
[V:3] G,,4F,,4 | 
[V:1] F,2B,3CD2 | 
[V:2] z2F2B4 | 
[V:3] B,,8 | 
[V:1] C2B,2F2E2 | 
[V:2] A2G2F2B2- | 
[V:3] F,,2B,,2D,2E,2 | 
[V:1] C4B,2F2 | 
[V:2] B2A2B2d2- | 
[V:3] F,4z2B,,2 | 
[V:1] G2A3FG2 | 
[V:2] def3d_e2 | 
[V:3] A,,2F,,2F,2_E,2 | 
[V:1] F2B4A2 | 
[V:2] B2d2c4 | 
[V:3] D,2B,,2F,4 | 
[V:1] B4z2A2 | 
[V:2] B2G2F4 | 
[V:3] B,,4D,4- | 
[V:1] F2G3FD2- | 
[V:2] B3cd4 | 
[V:3] D,2_E,2D,2B,,2- | 
[V:1] D_EFE/F/G2FD | 
[V:2] B8 | 
[V:3] B,,C,D,C,/D,/_E,2D,B,, | 
[V:1] C2_E2D4 | 
[V:2] c2c4=B2 | 
[V:3] A,,2C,2G,,4 | 
[V:1] C8 ||  
[V:2] c8 ||  
[V:3] C,8 ||  
[V:1]  [K:Bb] [K:clef=treble][M:4/2]A4F2B2- | 
[V:2]  [K:Bb] [K:clef=treble-8][M:4/2]c4d4 | 
[V:3]  [K:Bb] [K:clef=bass][M:4/2]F,4D,2B,,2 | 
[V:1] BAGFG2A2- | 
[V:2] c2BAB2c2 | 
[V:3] z2E,4C,2 | 
[V:1] A2F4=E2 | 
[V:2] F4G4 | 
[V:3] D,4C,4 | 
[V:1] F4=E4 | 
[V:2] F4z2c2- | 
[V:3] z2D,2C,4 | 
[V:1] D4z2G2- | 
[V:2] c2B2e4 | 
[V:3] G,,4C,4 | 
[V:1] G2F2=E4 | 
[V:2] d4c4 | 
[V:3] B,,4z2C,2- | 
[V:1] D4C2F2- | 
[V:2] z2f2=e2d2- | 
[V:3] C,A,,B,,2C,2B,,2 | 
[V:1] F2G2A2B2- | 
[V:2] d2B2A2G2 | 
[V:3] D,2E,2F,2G,2 | 
[V:1] BAA4G2 | 
[V:2] c4B4 | 
[V:3] E,2F,2z2B,,2 | 
[V:1] A2c2B2A2- | 
[V:2] A4G2A2- | 
[V:3] F,4G,2F,2 | 
[V:1] A2F2=E3C | 
[V:2] A2B2c4 | 
[V:3] D,4C,3A,, | 
[V:1] D2C4A,2 | 
[V:2] B2A2F4 | 
[V:3] G,,2A,,4F,,2 | 
[V:1] B,2A,2F,3G, | 
[V:2] G2F3GAB | 
[V:3] B,,C,D,3E,F,2- | 
[V:1] A,B,C2D2C2 | 
[V:2] c3AB2A2- | 
[V:3] F,2C,2B,,2F,2- | 
[V:1] F3GA3F | 
[V:2] A2d3cd2 | 
[V:3] F,2D,4F,2 | 
[V:1] =E2G3FA2- | 
[V:2] cAB2c2F2 | 
[V:3] C,2B,,E,2F,D,2- | 
[V:1] AFF4=E2 | 
[V:2] A4G4 | 
[V:3] D,2F,2C,4 | 
[V:1] F8 |]  
[V:2] F8 |]  
[V:3] F,,8 |]  



